src/icons/solid/symbols/list.svg

<svg width="24" height="24" viewBox="0 0 24 24" fill="none" xmlns="http://www.w3.org/2000/svg">
<g clip-path="url(#clip0_402_618)">
<path d="M20.8427 5.0422C20.4216 4.64571 19.867 4.4233 19.2714 4.4233H16.3341C16.18 3.60132 15.7486 2.81802 15.1119 2.21846C14.28 1.43516 13.1708 1 12 1C10.8292 1 9.70973 1.43516 8.87784 2.21846C8.24108 2.81802 7.80973 3.60132 7.65568 4.4233H4.71838C4.1227 4.4233 3.56811 4.64571 3.14703 5.0422C2.72595 5.43868 2.5 5.96088 2.5 6.52176V20.9112C2.5 21.4721 2.72595 21.9943 3.14703 22.3908C3.56811 22.7873 4.1227 23 4.71838 23H19.2714C19.867 23 20.4216 22.7873 20.8427 22.3908C21.2638 21.9943 21.5 21.4721 21.5 20.9112V6.52176C21.5 5.96088 21.2638 5.43868 20.8427 5.0422ZM7.63514 16.7626H16.3649C16.7859 16.7626 17.1351 17.0914 17.1351 17.4879C17.1351 17.8844 16.7859 18.2132 16.3649 18.2132H7.63514C7.20378 18.2132 6.86486 17.8941 6.86486 17.4879C6.86486 17.0818 7.20378 16.7626 7.63514 16.7626ZM6.86486 14.0646C6.86486 13.6681 7.20378 13.3393 7.63514 13.3393H16.3649C16.7859 13.3393 17.1351 13.6681 17.1351 14.0646C17.1351 14.4611 16.7859 14.7899 16.3649 14.7899H7.63514C7.20378 14.7899 6.86486 14.4708 6.86486 14.0646ZM16.3649 11.3666H7.63514C7.20378 11.3666 6.86486 11.0378 6.86486 10.6413C6.86486 10.2448 7.20378 9.91604 7.63514 9.91604H16.3649C16.7859 9.91604 17.1351 10.2448 17.1351 10.6413C17.1351 11.0378 16.7859 11.3666 16.3649 11.3666ZM12 3.75604C12.6162 3.75604 13.1297 4.22989 13.1297 4.81978C13.1297 5.40967 12.6162 5.88352 12 5.88352C11.3838 5.88352 10.86 5.40967 10.86 4.81978C10.86 4.22989 11.3735 3.75604 12 3.75604Z" fill="#212121"/>
</g>
<defs>
<clipPath id="clip0_402_618">
<rect width="24" height="24" fill="white"/>
</clipPath>
</defs>
</svg>

<svg xmlns="http://www.w3.org/2000/svg" width="24" height="24" fill="none" viewBox="0 0 24 24"><g clip-path="url(#a)"><path fill="currentColor" d="M20.843 5.042a2.28 2.28 0 0 0-1.572-.619h-2.937a4.1 4.1 0 0 0-1.222-2.205A4.52 4.52 0 0 0 12 1a4.55 4.55 0 0 0-3.122 1.218 4.1 4.1 0 0 0-1.222 2.205H4.718c-.595 0-1.15.223-1.571.62A2 2 0 0 0 2.5 6.521v14.39c0 .56.226 1.082.647 1.479a2.27 2.27 0 0 0 1.571.609h14.553a2.27 2.27 0 0 0 1.572-.61 2.02 2.02 0 0 0 .657-1.479V6.521a2.02 2.02 0 0 0-.657-1.479M7.635 16.762h8.73c.42 0 .77.33.77.726s-.35.725-.77.725h-8.73c-.431 0-.77-.319-.77-.725s.339-.725.77-.725m-.77-2.697c0-.397.339-.726.77-.726h8.73c.42 0 .77.33.77.726s-.35.725-.77.725h-8.73c-.431 0-.77-.32-.77-.725m9.5-2.698h-8.73c-.431 0-.77-.33-.77-.726s.339-.725.77-.725h8.73c.42 0 .77.329.77.725 0 .397-.35.726-.77.726M12 3.756c.616 0 1.13.474 1.13 1.064S12.616 5.884 12 5.884s-1.14-.474-1.14-1.064.514-1.064 1.14-1.064"/></g><defs><clipPath id="a"><path fill="currentColor" d="M0 0h24v24H0z"/></clipPath></defs></svg>
